X: 21902
T: MISS POLLY SKINNER'S REEL
R: reel
B: K\"ohler's Violin Repository, v.2, 1885 p.190 #2
F: The archive.org file had illegible smudges for this page, so I used the youscribe.com copy instead.
F: http://en.youscribe.com/catalogue/scores-and-tablatures/art-music-and-cinema/romantic-music-scores/partition-book-2-kohler-s-violon-repository-of-danse-music-kohler-s-1358680
Z: 2012 John Chambers <jc:trillian.mit.edu>
M: C|
L: 1/8
K: D
   uF | DdFd E/E/E (EF) | DdFd DdFd | (e/d/c/B/ e)F E/E/E (EF) | DdFd D/D/D D :|
|: uf | (d/e/f/g/ a)f geef | (d/e/f/g/ a)f bgaf | gefd geef | (d/c/B/A/) (dF) D/D/D D "^D.C.":|

%%sep 2 1 500

